X: 21572
T: SHUTER'S HORNPIPE
R: hornpipe, reel
B: K\"ohler's Violin Repository, v.2, 1885 p.157 #2
F: http://www.archive.org/details/klersviolinrepos02rugg
Z: 2012 John Chambers <jc:trillian.mit.edu>
N: Added the missing rest to the last measure.
M: C|
L: 1/8
K: G
|:\
vG2G2 GABc | dcBA GABG | A2A2 A2(ed) | cBAG FAFD |\
G2G2 GABc | dcBA G2g2 | (fa)fd (eg)e^c | d2(.d2.d2) z2 :|
|:\
vA2A2 A2(Bc) | dBAG FAFD | d2d2 d2(ef) | gedc BdBG |\
e2c2 c2ge | (d2B2) B2g2 | ecec BAGF | G2(.B2.G2) z2 :|

%%sep 2 1 500

